public/weather-icons/thunder-rain.svg

<svg width="80" height="71" viewBox="0 0 80 71" fill="none" xmlns="http://www.w3.org/2000/svg">
<g clip-path="url(#clip0_3430_1409)">
<path d="M37.1001 68.6304C39.0201 66.6304 44.9301 60.2104 44.9301 60.2104C46.2901 58.7404 47.6001 57.3204 48.9301 55.9104C49.1644 55.7324 49.3309 55.4797 49.4018 55.1941C49.4727 54.9085 49.4439 54.6073 49.3201 54.3404C49.1835 54.0764 48.9629 53.8653 48.6932 53.7404C48.4234 53.6155 48.1198 53.5838 47.8301 53.6504C47.4001 53.7004 46.9701 53.7204 46.4501 53.7604C46.5901 53.4804 46.6801 53.2804 46.7801 53.0904L49.3701 48.0904C49.9501 46.9604 49.4301 46.0904 48.1901 46.0904C45.1901 46.0904 42.1901 46.0904 39.1901 46.0904C38.8905 46.0666 38.5912 46.1391 38.3358 46.2974C38.0803 46.4557 37.8821 46.6915 37.7701 46.9704C36.1101 50.3904 34.4401 53.8104 32.7701 57.2204C32.6201 57.4209 32.5343 57.6622 32.524 57.9125C32.5137 58.1627 32.5795 58.4102 32.7126 58.6224C32.8458 58.8345 33.04 59.0014 33.2699 59.101C33.4997 59.2006 33.7543 59.2283 34.0001 59.1804H37.6001C37.4101 59.7904 37.2501 60.3504 37.0401 60.9004L36.0001 64.2404C35.6101 65.4604 35.1901 66.5804 34.9101 67.7204C34.8778 67.9284 34.8915 68.1409 34.9503 68.3431C35.009 68.5452 35.1114 68.732 35.2501 68.8904C35.605 69.1209 36.0307 69.2167 36.4501 69.1604C36.6501 69.1404 36.9001 68.8504 37.1001 68.6304Z" fill="#F5B952"/>
<path d="M57.8001 39.92H9.08012C7.94973 39.8522 6.85358 39.5063 5.8889 38.9132C4.92423 38.3201 4.12088 37.4981 3.55012 36.52C2.64976 35.1023 2.16403 33.461 2.14788 31.7816C2.13172 30.1022 2.58578 28.4519 3.45871 27.0171C4.33163 25.5823 5.58859 24.4205 7.08743 23.6628C8.58627 22.9052 10.2672 22.5821 11.9401 22.73C13.4001 22.8 13.7101 22.26 13.9401 21.02C14.6572 16.3653 16.8149 12.0524 20.1099 8.68744C23.4049 5.32248 27.6715 3.07468 32.3101 2.26H32.4201C37.614 1.53078 42.8985 2.66065 47.3401 5.45C47.7801 5.72 48.2101 6.03 48.6501 6.35C51.0987 8.25805 53.139 10.6385 54.6501 13.35L55.3601 14.56" fill="#F9FCFE"/>
<path d="M34.5801 27.4401C34.8501 25.4402 35.7353 23.5738 37.1131 22.0992C38.4909 20.6247 40.2931 19.6151 42.2701 19.2101C42.8983 19.1086 43.5337 19.0584 44.1701 19.0601C46.6625 19.0628 49.0623 20.0055 50.8901 21.7001C52.184 22.9284 53.1088 24.494 53.5601 26.2201" fill="#F9FCFE"/>
<path d="M47.7397 19.6704C50.5597 15.2704 57.0397 13.6704 62.2197 14.6704C64.5164 15.1075 66.6324 16.2143 68.3015 17.8513C69.9706 19.4884 71.1182 21.5826 71.5997 23.8704C72.2597 26.7704 72.4697 27.8704 74.6797 29.4304C77.8197 31.6404 77.5997 36.5804 75.0597 38.9104C74.3815 39.5009 73.5188 39.8368 72.6197 39.8604H55.7697" fill="#F9FCFE"/>
<path d="M70.5 39.7202H8.99991C7.86355 39.6537 6.76053 39.3112 5.78646 38.7222C4.81238 38.1332 3.99663 37.3156 3.40991 36.3402C2.56145 35.0056 2.07961 33.4711 2.0129 31.8911C1.94618 30.3111 2.29696 28.7415 3.02991 27.3402C3.89708 25.7859 5.19423 24.5148 6.76576 23.6794C8.3373 22.844 10.1165 22.4797 11.8899 22.6302C13.3699 22.7102 13.6799 22.1702 13.8899 20.9402C14.641 16.2711 16.8379 11.9553 20.1711 8.60062C23.5042 5.24592 27.8058 3.02133 32.4699 2.24017H32.5899C37.8304 1.51069 43.161 2.63554 47.6599 5.42017C48.0999 5.6935 48.5399 5.9935 48.9799 6.32017C51.4574 8.19253 53.5349 10.5421 55.0899 13.2302L55.7999 14.4302" stroke="#F9FCFE" stroke-width="4" stroke-miterlimit="10"/>
<path d="M34.77 27.3102C35.0508 25.3048 35.9504 23.437 37.3432 21.9671C38.736 20.4972 40.5527 19.4985 42.54 19.1102C43.1755 19.0164 43.818 18.9796 44.46 19.0002C46.9712 18.9945 49.3935 19.9292 51.25 21.6202C52.542 22.8414 53.4727 24.3949 53.94 26.1102" stroke="#F9FCFE" stroke-width="4" stroke-miterlimit="10"/>
<path d="M48.0601 19.5702C50.9101 15.1902 57.4601 13.5702 62.6901 14.6502C64.9965 15.0677 67.1274 16.16 68.813 17.7887C70.4987 19.4174 71.6635 21.5094 72.1601 23.8002C72.8301 26.6902 73.0401 27.8002 75.2701 29.3302C78.4501 31.5302 78.2701 36.4502 75.6601 38.7702C74.9684 39.3579 74.0973 39.6929 73.1901 39.7202H70.0001" stroke="#F9FCFE" stroke-width="4" stroke-miterlimit="10"/>
<path d="M63.46 60.2002L57.25 66.0802" stroke="#5063F0" stroke-width="3" stroke-miterlimit="10" stroke-linecap="round"/>
<path d="M21.24 60.2002L15.04 66.0802" stroke="#5063F0" stroke-width="3" stroke-miterlimit="10" stroke-linecap="round"/>
<path d="M63.46 47.4102L57.25 53.2902" stroke="#5063F0" stroke-width="3" stroke-miterlimit="10" stroke-linecap="round"/>
<path d="M21.24 47.4102L15.04 53.2902" stroke="#5063F0" stroke-width="3" stroke-miterlimit="10" stroke-linecap="round"/>
</g>
<defs>
<clipPath id="clip0_3430_1409">
<rect width="79.62" height="70.92" fill="white"/>
</clipPath>
</defs>
</svg>

<svg xmlns="http://www.w3.org/2000/svg" viewBox="0 0 79.62 70.92"><defs><style>.cls-1{fill:#f5b952;}.cls-2{fill:#cae3f6;}.cls-3,.cls-4,.cls-5{fill:none;stroke-miterlimit:10;}.cls-3,.cls-5{stroke:#000;stroke-width:3px;}.cls-4{stroke:#0a0b0b;stroke-width:4px;}.cls-5{stroke-linecap:round;}</style></defs><title>thunder-rainAsset 172colored</title><g id="Layer_2" data-name="Layer 2"><g id="Layer_1-2" data-name="Layer 1"><path class="cls-1" d="M37.1,68.63c1.92-2,7.83-8.42,7.83-8.42h0c1.36-1.47,2.67-2.89,4-4.3a1.29,1.29,0,0,0,.39-1.57,1.34,1.34,0,0,0-1.49-.69c-.43.05-.86.07-1.38.11.14-.28.23-.48.33-.67l2.59-5c.58-1.13.06-2-1.18-2-3,0-6,0-9,0a1.41,1.41,0,0,0-1.42.88c-1.66,3.42-3.33,6.84-5,10.25A1.24,1.24,0,0,0,34,59.18h3.6c-.19.61-.35,1.17-.56,1.72L36,64.24c-.39,1.22-.81,2.34-1.09,3.48a1.44,1.44,0,0,0,.34,1.17,1.77,1.77,0,0,0,1.2.27C36.65,69.14,36.9,68.85,37.1,68.63Z"/><path class="cls-2" d="M57.8,39.92H9.08a6.88,6.88,0,0,1-5.53-3.4,9,9,0,0,1,8.39-13.79c1.46.07,1.77-.47,2-1.71A22.53,22.53,0,0,1,32.31,2.26l.11,0A22.24,22.24,0,0,1,47.34,5.45c.44.27.87.58,1.31.9a23.18,23.18,0,0,1,6,7l.71,1.21"/><path class="cls-2" d="M34.58,27.44a9.73,9.73,0,0,1,7.69-8.23,11.72,11.72,0,0,1,1.9-.15,9.9,9.9,0,0,1,6.72,2.64,9.57,9.57,0,0,1,2.67,4.52"/><path class="cls-2" d="M47.74,19.67c2.82-4.4,9.3-6,14.48-5a11.85,11.85,0,0,1,9.38,9.2c.66,2.9.87,4,3.08,5.56,3.14,2.21,2.92,7.15.38,9.48a3.87,3.87,0,0,1-2.44.95H55.77"/><line class="cls-2" x1="61.21" y1="39.91" x2="66.26" y2="39.91"/><path class="cls-3" d="M37.1,68.88c1.92-2,7.83-8.42,7.83-8.42h0l4-4.29a1.31,1.31,0,0,0,.39-1.58,1.34,1.34,0,0,0-1.49-.68l-1.38.1.33-.66,2.59-5c.58-1.12.06-2-1.18-2-3,0-6,0-9,0a1.39,1.39,0,0,0-1.42.88c-1.66,3.42-3.33,6.83-5,10.25A1.23,1.23,0,0,0,34,59.43h3.6c-.19.61-.35,1.18-.56,1.72L36,64.49c-.39,1.23-.81,2.34-1.09,3.49a1.46,1.46,0,0,0,.34,1.17,1.76,1.76,0,0,0,1.2.26C36.65,69.39,36.9,69.1,37.1,68.88Z"/><path class="cls-4" d="M58.22,39.72H9a7,7,0,0,1-5.59-3.38,9,9,0,0,1-.38-9,9.25,9.25,0,0,1,8.86-4.71c1.48.08,1.79-.46,2-1.69A22.6,22.6,0,0,1,32.47,2.24h.12A22.69,22.69,0,0,1,47.66,5.42q.66.41,1.32.9a23.26,23.26,0,0,1,6.11,6.91l.71,1.2"/><path class="cls-4" d="M34.77,27.31a9.73,9.73,0,0,1,7.77-8.2A10.79,10.79,0,0,1,44.46,19a10.05,10.05,0,0,1,6.79,2.62,9.68,9.68,0,0,1,2.69,4.49"/><path class="cls-4" d="M48.06,19.57c2.85-4.38,9.4-6,14.63-4.92a11.85,11.85,0,0,1,9.47,9.15c.67,2.89.88,4,3.11,5.53,3.18,2.2,3,7.12.39,9.44a4,4,0,0,1-2.47.95H70"/><line class="cls-4" x1="61.67" y1="39.72" x2="66.77" y2="39.72"/><line class="cls-5" x1="63.46" y1="60.2" x2="57.25" y2="66.08"/><line class="cls-5" x1="21.24" y1="60.2" x2="15.04" y2="66.08"/><line class="cls-5" x1="63.46" y1="47.41" x2="57.25" y2="53.29"/><line class="cls-5" x1="21.24" y1="47.41" x2="15.04" y2="53.29"/></g></g></svg>
